packages/icons/general/Plugin.svg

<svg width="19" height="18" viewBox="0 0 19 18" xmlns="http://www.w3.org/2000/svg">
<g>
        <path
            d="M12.6624 16.5H9.24266L9.50679 15.7563C9.57629 15.5547 9.59715 15.3392 9.56934 15.1238C9.54154 14.9083 9.45813 14.7067 9.33302 14.5329C9.20791 14.3592 9.04109 14.2132 8.85342 14.1159C8.47808 13.9213 7.99848 13.9213 7.62314 14.1159C7.43547 14.2132 7.26865 14.3592 7.14354 14.5329C7.02538 14.7067 6.94197 14.9152 6.91417 15.1238C6.88636 15.3323 6.90721 15.5547 6.97672 15.7563L7.24085 16.5H3.82109C3.57782 16.5 3.34844 16.4513 3.12602 16.361C2.90359 16.2706 2.70897 16.1386 2.53521 15.9648C2.36144 15.791 2.22937 15.5964 2.13901 15.374C2.04866 15.1516 2 14.9152 2 14.6789V11.2731L2.74373 11.5372C2.9453 11.6067 3.16077 11.6275 3.36929 11.5997C3.57782 11.5719 3.77939 11.4885 3.95315 11.3634C4.12692 11.2383 4.27289 11.0784 4.3702 10.8838C4.46751 10.6961 4.52311 10.4807 4.52311 10.2721C4.52311 10.0636 4.46751 9.8412 4.3702 9.65353C4.27289 9.46586 4.12692 9.29904 3.95315 9.17393C3.77939 9.04882 3.57782 8.97236 3.36929 8.93761C3.16077 8.9098 2.93835 8.93066 2.74373 9.00016L2 9.26429V5.84453C2 5.35798 2.18767 4.89923 2.53521 4.55865C2.87579 4.21806 3.34149 4.02344 3.82109 4.02344H5.7951C5.78815 3.88443 5.7951 3.74541 5.81595 3.61335C5.86461 3.22411 6.01752 2.85572 6.23994 2.53599C6.46237 2.21625 6.7682 1.95212 7.11574 1.77836C7.46327 1.59764 7.87337 1.49338 8.24175 1.50033C8.65185 1.50033 9.03414 1.59069 9.36777 1.7575C9.71531 1.93822 10.0142 2.20235 10.2436 2.52208C10.4729 2.84182 10.6189 3.21716 10.6676 3.59945C10.6884 3.73846 10.6954 3.87748 10.6884 4.00954H12.6624C12.9057 4.00954 13.1351 4.0582 13.3575 4.14855C13.5799 4.23891 13.7745 4.37098 13.9483 4.54475C14.1221 4.71156 14.2541 4.91313 14.3445 5.13556C14.4349 5.35798 14.4835 5.59431 14.4835 5.83063V7.80464C14.6225 7.79769 14.7615 7.80464 14.8936 7.82549C15.2828 7.8811 15.6582 8.02706 15.9779 8.24948C16.2976 8.47886 16.5618 8.77774 16.7425 9.12528C16.9232 9.47281 17.0205 9.86205 17.0205 10.2513C17.0205 10.6405 16.9232 11.0298 16.7425 11.3773C16.5618 11.7248 16.2976 12.0307 15.9779 12.2531C15.6582 12.4755 15.2828 12.6284 14.8936 12.6771C14.7546 12.698 14.6225 12.7049 14.4835 12.698V14.665C14.4835 14.9083 14.4349 15.1446 14.3445 15.3601C14.2541 15.5756 14.1221 15.7771 13.9553 15.9509C13.7815 16.1247 13.5869 16.2567 13.3644 16.3471C13.1351 16.4513 12.8987 16.5 12.6624 16.5ZM10.6954 15.3879H12.6624C12.7528 15.3879 12.8501 15.367 12.9335 15.3323C13.0169 15.2975 13.1003 15.2419 13.1629 15.1794C13.2254 15.1168 13.281 15.0334 13.3158 14.95C13.3505 14.8666 13.3714 14.7693 13.3714 14.6789V11.2522L14.1151 11.5163C14.3167 11.5858 14.5322 11.6136 14.7476 11.5789C14.9631 11.5511 15.1647 11.4677 15.3384 11.3495C15.5122 11.2244 15.6582 11.0576 15.7555 10.8699C15.8528 10.6822 15.9015 10.4668 15.9015 10.2513C15.9015 10.0358 15.8459 9.8273 15.7485 9.63268C15.6512 9.44501 15.5053 9.27819 15.3315 9.15308C15.1577 9.02797 14.9562 8.95151 14.7407 8.92371C14.5322 8.8959 14.3097 8.91675 14.1082 8.98626L13.3644 9.25039V5.83063C13.3644 5.74027 13.3436 5.64991 13.3088 5.55955C13.2741 5.47614 13.2254 5.39969 13.1559 5.33018C13.0864 5.26067 13.01 5.21202 12.9265 5.17726C12.8431 5.14251 12.7528 5.12166 12.6555 5.12166H9.23571L9.49984 4.37793C9.56934 4.17636 9.5902 3.96089 9.56239 3.74541C9.53459 3.53689 9.45118 3.32837 9.32607 3.1546C9.20095 2.98083 9.03414 2.83487 8.84647 2.73756C8.67965 2.6611 8.47808 2.61244 8.24175 2.61244C8.02628 2.61244 7.81776 2.6611 7.63009 2.75841C7.44242 2.85572 7.2756 3.00168 7.15049 3.17545C7.02538 3.34922 6.94197 3.55774 6.91417 3.76626C6.88636 3.97479 6.90721 4.19721 6.97672 4.39878L7.24085 5.14251H3.82109C3.63342 5.14251 3.4527 5.21897 3.32064 5.35103C3.18857 5.47614 3.11212 5.65686 3.11212 5.84453V7.81854C3.25113 7.81159 3.39015 7.81854 3.52221 7.83939C3.91145 7.895 4.27984 8.04096 4.59957 8.27034C4.91931 8.49276 5.17648 8.79859 5.3572 9.14613C5.53792 9.49367 5.62828 9.88291 5.62828 10.2721C5.62828 10.6614 5.53097 11.0506 5.3572 11.3982C5.17648 11.7457 4.91931 12.0446 4.59957 12.274C4.27984 12.4964 3.91145 12.6493 3.52221 12.7049C3.39015 12.7119 3.25113 12.7188 3.11212 12.7119V14.672C3.11212 14.7693 3.13297 14.8596 3.16772 14.943C3.20248 15.0264 3.25808 15.1099 3.32064 15.1724C3.3832 15.235 3.45965 15.2906 3.55001 15.3253C3.63342 15.3601 3.72378 15.3809 3.82109 15.3809H5.7951C5.78815 15.2419 5.7951 15.1029 5.81595 14.9708C5.87156 14.5816 6.01752 14.2132 6.23994 13.8935C6.46237 13.5737 6.7682 13.3096 7.11574 13.1289C7.81081 12.7675 8.67965 12.7675 9.37472 13.1289C9.72226 13.3096 10.0211 13.5737 10.2505 13.8935C10.4799 14.2132 10.6259 14.5885 10.6745 14.9708C10.6884 15.1099 10.6954 15.2489 10.6954 15.3879Z"
            fill="white"
        />
    </g>
</svg>

<svg xmlns="http://www.w3.org/2000/svg" width="19" height="18">
    <path fill="#fff" d="M12.662 16.5h-3.42l.265-.744c.07-.201.09-.417.062-.632a1.295 1.295 0 0 0-.236-.591 1.383 1.383 0 0 0-.48-.417 1.37 1.37 0 0 0-1.23 0 1.383 1.383 0 0 0-.48.417 1.401 1.401 0 0 0-.229.59 1.39 1.39 0 0 0 .063.633l.264.744H3.82A1.825 1.825 0 0 1 2 14.679v-3.406l.744.264a1.3 1.3 0 0 0 1.21-.174 1.35 1.35 0 0 0 .57-1.091c0-.208-.056-.43-.154-.618a1.382 1.382 0 0 0-.417-.48 1.384 1.384 0 0 0-.584-.236A1.36 1.36 0 0 0 2.744 9L2 9.264v-3.42c0-.486.188-.945.535-1.285.34-.34.806-.536 1.286-.536h1.974a2.423 2.423 0 0 1 1.32-2.245A2.43 2.43 0 0 1 8.243 1.5c.41 0 .792.09 1.126.258.347.18.646.444.876.764.229.32.375.695.424 1.077.02.14.027.278.02.41h1.974a1.824 1.824 0 0 1 1.821 1.822v1.974c.14-.007.278 0 .41.02.39.056.765.202 1.085.424.32.23.584.529.764.876.181.348.278.737.278 1.126 0 .39-.097.779-.277 1.126a2.445 2.445 0 0 1-1.85 1.3 2.03 2.03 0 0 1-.41.021v1.967c0 .243-.048.48-.139.695a1.94 1.94 0 0 1-.389.59 1.768 1.768 0 0 1-.59.397c-.23.104-.466.153-.703.153Zm-1.967-1.112h1.967a.728.728 0 0 0 .5-.209.728.728 0 0 0 .208-.5v-3.427l.745.264a1.366 1.366 0 0 0 1.223-.167c.174-.125.32-.291.418-.48a1.351 1.351 0 0 0-.008-1.236 1.382 1.382 0 0 0-.416-.48 1.285 1.285 0 0 0-.591-.23 1.399 1.399 0 0 0-.633.063l-.744.264V5.83c0-.09-.02-.18-.055-.27a.697.697 0 0 0-.382-.383.7.7 0 0 0-.271-.055h-3.42l.264-.744c.07-.202.09-.417.062-.633a1.326 1.326 0 0 0-.236-.59 1.382 1.382 0 0 0-.48-.417 1.44 1.44 0 0 0-.604-.126 1.323 1.323 0 0 0-1.092.563 1.326 1.326 0 0 0-.236.591c-.028.209-.007.431.063.633l.264.744H3.82a.71.71 0 0 0-.5.208.683.683 0 0 0-.209.494v1.974c.14-.007.278 0 .41.02a2.442 2.442 0 0 1 1.835 1.307c.18.348.271.737.271 1.126 0 .39-.097.779-.27 1.126a2.499 2.499 0 0 1-.758.876c-.32.222-.689.375-1.078.43-.132.008-.27.015-.41.008v1.96a.736.736 0 0 0 .209.5.663.663 0 0 0 .229.153.699.699 0 0 0 .271.056h1.974c-.007-.14 0-.278.021-.41a2.444 2.444 0 0 1 1.3-1.842 2.489 2.489 0 0 1 2.259 0c.347.18.646.445.876.764.229.32.375.695.424 1.078.013.139.02.278.02.417Z"/>
</svg>
